public/svg/smsUz.svg

<svg width="164" height="98" viewBox="0 0 164 98" fill="none" xmlns="http://www.w3.org/2000/svg">
<path d="M147.143 0H16.2861C7.44958 0 0.286133 7.16344 0.286133 16V81.7143C0.286133 90.5509 7.44958 97.7143 16.2861 97.7143H147.143C155.98 97.7143 163.143 90.5509 163.143 81.7143V16C163.143 7.16344 155.98 0 147.143 0Z" fill="#1B5BF7"/>
<path d="M20.6446 51.5851C20.7292 52.2976 20.9124 52.8039 21.1942 53.1039C21.6921 53.6384 22.6127 53.9056 23.9561 53.9056C24.7452 53.9056 25.3699 53.7884 25.8302 53.554C26.2999 53.3196 26.5348 52.968 26.5348 52.4992C26.5348 52.0492 26.3469 51.707 25.9711 51.4726C25.5954 51.2382 24.2003 50.835 21.786 50.2631C20.0481 49.8318 18.8222 49.2927 18.1082 48.6458C17.3943 48.0082 17.0373 47.0894 17.0373 45.8893C17.0373 44.4736 17.5915 43.2594 18.7 42.2468C19.8179 41.2248 21.3868 40.7139 23.4065 40.7139C25.3229 40.7139 26.8824 41.0983 28.0848 41.8671C29.2967 42.6265 29.9918 43.9438 30.1703 45.819H26.1543C26.0979 45.3033 25.9523 44.8955 25.7175 44.5954C25.276 44.0516 24.5244 43.7797 23.4629 43.7797C22.5892 43.7797 21.9645 43.9157 21.5887 44.1876C21.2224 44.4595 21.0392 44.7783 21.0392 45.1439C21.0392 45.6033 21.2365 45.9362 21.631 46.1424C22.0256 46.3581 23.4206 46.7284 25.8161 47.2535C27.4131 47.6285 28.6109 48.1957 29.4094 48.9552C30.1985 49.724 30.5931 50.685 30.5931 51.8382C30.5931 53.3571 30.0247 54.5994 28.888 55.5651C27.7607 56.5214 26.0134 56.9996 23.6461 56.9996C21.2318 56.9996 19.4469 56.4933 18.2914 55.4807C17.1453 54.4587 16.5723 53.1602 16.5723 51.5851H20.6446Z" fill="white"/>
<path d="M51.0324 40.8125C51.7088 40.8125 52.3758 40.9438 53.0334 41.2063C53.691 41.4688 54.2875 41.9282 54.823 42.5845C55.2551 43.119 55.5463 43.7753 55.6966 44.5534C55.7906 45.0691 55.8375 45.8239 55.8375 46.8177L55.8093 56.4794H51.6947V46.7192C51.6947 46.138 51.6008 45.6598 51.4129 45.2848C51.0559 44.5722 50.3983 44.2159 49.4401 44.2159C48.3316 44.2159 47.566 44.6753 47.1432 45.5942C46.9272 46.0817 46.8191 46.6677 46.8191 47.3521V56.4794H42.7749V47.3521C42.7749 46.4427 42.681 45.7817 42.4931 45.3691C42.1549 44.6285 41.4926 44.2581 40.5063 44.2581C39.3602 44.2581 38.5898 44.6285 38.1953 45.3691C37.9792 45.791 37.8712 46.4192 37.8712 47.2537V56.4794H33.7988V41.1782H37.7021V43.4143C38.2 42.6173 38.6697 42.0501 39.1112 41.7126C39.8909 41.1125 40.9008 40.8125 42.1408 40.8125C43.3151 40.8125 44.2639 41.0703 44.9873 41.586C45.5697 42.0642 46.0112 42.6783 46.3118 43.4284C46.8379 42.5283 47.4908 41.8673 48.2705 41.4454C49.0972 41.0235 50.0178 40.8125 51.0324 40.8125Z" fill="white"/>
<path d="M62.96 51.5851C63.045 52.2976 63.228 52.8039 63.51 53.1039C64.008 53.6384 64.928 53.9056 66.272 53.9056C67.061 53.9056 67.685 53.7884 68.146 53.554C68.615 53.3196 68.85 52.968 68.85 52.4992C68.85 52.0492 68.662 51.707 68.287 51.4726C67.911 51.2382 66.516 50.835 64.101 50.2631C62.364 49.8318 61.138 49.2927 60.424 48.6458C59.7097 48.0082 59.3527 47.0894 59.3527 45.8893C59.3527 44.4736 59.907 43.2594 61.015 42.2468C62.133 41.2248 63.702 40.7139 65.722 40.7139C67.638 40.7139 69.198 41.0983 70.4 41.8671C71.612 42.6265 72.307 43.9438 72.486 45.819H68.47C68.413 45.3033 68.268 44.8955 68.033 44.5954C67.591 44.0516 66.84 43.7797 65.778 43.7797C64.905 43.7797 64.28 43.9157 63.904 44.1876C63.538 44.4595 63.355 44.7783 63.355 45.1439C63.355 45.6033 63.552 45.9362 63.946 46.1424C64.341 46.3581 65.736 46.7284 68.132 47.2535C69.729 47.6285 70.926 48.1957 71.725 48.9552C72.514 49.724 72.908 50.685 72.908 51.8382C72.908 53.3571 72.34 54.5994 71.203 55.5651C70.076 56.5214 68.329 56.9996 65.962 56.9996C63.547 56.9996 61.762 56.4933 60.607 55.4807C59.4607 54.4587 58.8877 53.1602 58.8877 51.5851H62.96Z" fill="white"/>
<path d="M109.197 52.2881H113.467V56.479H109.197V52.2881Z" fill="white"/>
<path d="M80.364 41.1499V50.3898C80.364 51.2617 80.467 51.918 80.674 52.3587C81.04 53.1369 81.759 53.526 82.83 53.526C84.202 53.526 85.141 52.9728 85.648 51.8664C85.911 51.2664 86.043 50.4741 86.043 49.4897V41.1499H90.115V48.8146V56.4793H86.212V54.3135C86.174 54.3604 86.08 54.501 85.93 54.7354C85.78 54.9698 85.601 55.1761 85.395 55.3542C84.765 55.9168 84.155 56.3012 83.563 56.5075C82.98 56.7137 82.295 56.8169 81.505 56.8169C79.232 56.8169 77.701 56.0012 76.912 54.3698C76.47 53.4697 76.249 52.143 76.249 50.3898V41.1499H80.364Z" fill="white"/>
<path d="M93.4188 44.4127V41.1499H105.876V44.483L98.0838 53.1884H106.144V56.4793H92.8838V53.3572L100.761 44.4127H93.4188Z" fill="white"/>
<path d="M120.946 41.1499V50.3898C120.946 51.2617 121.049 51.918 121.256 52.3587C121.622 53.1369 122.341 53.526 123.412 53.526C124.783 53.526 125.723 52.9728 126.23 51.8664C126.493 51.2664 126.625 50.4741 126.625 49.4897V41.1499H130.697V48.8146V56.4793H126.794V54.3135C126.756 54.3604 126.662 54.501 126.512 54.7354C126.362 54.9698 126.183 55.1761 125.976 55.3542C125.347 55.9168 124.736 56.3012 124.145 56.5075C123.562 56.7137 122.876 56.8169 122.087 56.8169C119.814 56.8169 118.283 56.0012 117.493 54.3698C117.052 53.4697 116.831 52.143 116.831 50.3898V41.1499H120.946Z" fill="white"/>
<path d="M133.879 44.4127V41.1499H146.336V44.483L138.543 53.1884H146.604V56.4793H133.344V53.3572L141.221 44.4127H133.879Z" fill="white"/>
</svg>

<svg xmlns="http://www.w3.org/2000/svg" width="164" height="98" fill="none" xmlns:v="https://vecta.io/nano"><path d="M147.143 0H16.286c-8.837 0-16 7.163-16 16v65.714c0 8.837 7.163 16 16 16h130.857c8.837 0 16-7.163 16-16V16c0-8.837-7.163-16-16-16z" fill="#1b5bf7"/><path d="M20.645 51.585c.085.713.268 1.219.55 1.519.498.534 1.419.802 2.762.802.789 0 1.414-.117 1.874-.352.47-.234.705-.586.705-1.055 0-.45-.188-.792-.564-1.027s-1.771-.638-4.185-1.209c-1.738-.431-2.964-.97-3.678-1.617-.714-.638-1.071-1.556-1.071-2.757 0-1.416.554-2.63 1.663-3.642 1.118-1.022 2.687-1.533 4.707-1.533 1.916 0 3.476.384 4.678 1.153 1.212.759 1.907 2.077 2.085 3.952h-4.016c-.056-.516-.202-.924-.437-1.224-.442-.544-1.193-.816-2.255-.816-.874 0-1.498.136-1.874.408-.366.272-.549.591-.549.956 0 .459.197.792.592.999.395.216 1.79.586 4.185 1.111 1.597.375 2.795.942 3.593 1.702.789.769 1.184 1.73 1.184 2.883 0 1.519-.568 2.761-1.705 3.727-1.127.956-2.875 1.435-5.242 1.435-2.414 0-4.199-.506-5.355-1.519-1.146-1.022-1.719-2.32-1.719-3.896h4.072zm30.387-10.772a5.35 5.35 0 0 1 2.001.394c.658.263 1.254.722 1.79 1.378.432.535.723 1.191.874 1.969.094.516.141 1.27.141 2.264l-.028 9.662h-4.115v-9.76c0-.581-.094-1.059-.282-1.434-.357-.713-1.015-1.069-1.973-1.069-1.108 0-1.874.459-2.297 1.378-.216.487-.324 1.074-.324 1.758v9.127h-4.044v-9.127c0-.909-.094-1.57-.282-1.983-.338-.741-1-1.111-1.987-1.111-1.146 0-1.917.37-2.311 1.111-.216.422-.324 1.05-.324 1.885v9.226h-4.072V41.178h3.903v2.236c.498-.797.968-1.364 1.409-1.702.78-.6 1.79-.9 3.03-.9 1.174 0 2.123.258 2.846.773a4.5 4.5 0 0 1 1.325 1.842c.526-.9 1.179-1.561 1.959-1.983.827-.422 1.747-.633 2.762-.633zM62.96 51.585c.085.713.268 1.219.55 1.519.498.534 1.418.802 2.762.802.789 0 1.413-.117 1.874-.352.469-.234.704-.586.704-1.055 0-.45-.188-.792-.563-1.027s-1.771-.638-4.186-1.209c-1.737-.431-2.963-.97-3.677-1.617-.714-.638-1.071-1.556-1.071-2.757 0-1.416.554-2.63 1.662-3.642 1.118-1.022 2.687-1.533 4.707-1.533 1.916 0 3.476.384 4.678 1.153 1.212.759 1.907 2.077 2.086 3.952H68.47c-.057-.516-.202-.924-.437-1.224-.442-.544-1.193-.816-2.255-.816-.873 0-1.498.136-1.874.408-.366.272-.549.591-.549.956 0 .459.197.792.591.999.395.216 1.79.586 4.186 1.111 1.597.375 2.794.942 3.593 1.702.789.769 1.183 1.73 1.183 2.883 0 1.519-.568 2.761-1.705 3.727-1.127.956-2.874 1.435-5.241 1.435-2.415 0-4.2-.506-5.355-1.519-1.146-1.022-1.719-2.32-1.719-3.896h4.072zm46.237.703h4.27v4.191h-4.27v-4.191zM80.364 41.15v9.24c0 .872.103 1.528.31 1.969.366.778 1.085 1.167 2.156 1.167 1.372 0 2.311-.553 2.818-1.66.263-.6.395-1.392.395-2.377v-8.34h4.072v7.665 7.665h-3.903v-2.166c-.038.047-.132.188-.282.422a2.83 2.83 0 0 1-.535.619c-.63.563-1.24.947-1.832 1.153-.583.206-1.268.309-2.058.309-2.273 0-3.804-.816-4.593-2.447-.442-.9-.663-2.227-.663-3.98v-9.24h4.115zm13.055 3.263V41.15h12.457v3.333l-7.792 8.705h8.06v3.291h-13.26v-3.122l7.877-8.944h-7.342zm27.527-3.263v9.24c0 .872.103 1.528.31 1.969.366.778 1.085 1.167 2.156 1.167 1.371 0 2.311-.553 2.818-1.66.263-.6.395-1.392.395-2.377v-8.34h4.072v7.665 7.665h-3.903v-2.166c-.038.047-.132.188-.282.422a2.81 2.81 0 0 1-.536.619c-.629.563-1.24.947-1.831 1.153-.583.206-1.269.309-2.058.309-2.273 0-3.804-.816-4.594-2.447-.441-.9-.662-2.227-.662-3.98v-9.24h4.115zm12.933 3.263V41.15h12.457v3.333l-7.793 8.705h8.061v3.291h-13.26v-3.122l7.877-8.944h-7.342z" fill="#fff"/></svg>
